X:1
T:Would You Believe?
T:Would You Believe?
T:Daniel Brink Towner
T:Caroline M. Sawyer, 1899
T:Public Domain Courtesy of the Cyber Hymnal™
T:Public Domain Courtesy of the Cyber Hymnal™
C:Daniel Brink Towner
Z:Public Domain
Z:Courtesy of the Cyber Hymnal™
%%score ( 1 2 ) ( 3 4 )
L:1/8
Q:1/4=105
M:4/4
K:F
V:1 treble 
V:2 treble 
V:3 bass 
V:4 bass 
V:1
 C | [FA]2 [GA]2 [FA]3 [FB] | [FA][CG][CF][CE] [CF]3 [CF] | [CG]2 [DG]2 [EG]3 [CE] | %4
w: 1.~If|you could see Christ|stand- ing here to- night, His|thorn- crowned head and|
w: 2.~If|you could see that|face, so calm and sweet, Those|lips that spoke words|
w: 3.~He|whis- pers to your|heart, turn not a- way, For|He’s be- side you|
 [=B,G][DF][CE][B,D] [CE]3 C | [CA]2 [^CB]2 [DA]3 [DB] | [CA][CG][CF][B,E] [A,F]3 [DF] | %7
w: pierc- èd hands could view, Could|see those eyes that|beam with Heav’n’s own light, And|
w: on- ly pure and true, Could|see the nail prints|in His ten- der feet, And|
w: in your nar- row pew; If|you will list- en,|you will hear Him say, In|
 [EG]2 [FA]2 [Fc]3 [FB] | [FA][CG][CF][CE] !fermata![CF]2 ||[M:12/8]"^Refrain" [FA][F^G][FA] | %10
w: hear Him say— “Be-|lov- èd, ’twas for you.”|Would you be-|
w: hear Him say— “Be-|lov- èd, ’twas for you.”|Last verse: *|
w: lov- ing tones— “Be-|lov- èd, ’twas for you.”|Will you be-|
 [Ac]6- [Ac]2 [_EA] [DB][CA][DB] | [Fd]6- [Fd]3 [FG][FA][GB] | [FA]6 [EG]6 | %13
w: lieve, * and Je- sus re-|ceive, * If He were|stand- ing|
w: |||
w: lieve, * and Je- sus re-|ceive? * For He is|stand- ing|
 ([Fc]6 [Ac]3) [FA][F^G][FA] | [Ac]6- [Ac]2 [_EA] [DB][CA][DB] | [Fd]6- [Fd]3 [FG][FA][EB] | %16
w: here? * Would you be-|lieve, * and Je- sus re-|ceive, * If He were|
w: |||
w: here; * Will you be-|lieve, * and Je- sus re-|ceive? * For He is|
 [FA]6 [EG]6 | F6- F3 |] %18
w: stand- ing|here? *|
w: ||
w: stand- ing|here. *|
V:2
 C | x8 | x8 | x8 | x7 C | x8 | x8 | x8 | x6 ||[M:12/8] x3 | x12 | x12 | x12 | x12 | x12 | x12 | %16
 x12 | F6- F3 |] %18
V:3
 [F,A,] | [F,C]2 [E,^C]2 [D,D]3 [B,,D] | [C,C][C,B,][C,A,][C,G,] [F,A,]3 [F,A,] | %3
 [E,B,]2 [D,=B,]2 [C,C]3 [C,G,] | [D,G,][=B,,G,][G,,G,][G,,G,] [C,G,]3 [E,G,] | %5
 F,2 [E,G,]2 [D,F,]3 [B,,F,] | [C,F,][C,B,][C,A,][C,G,] [D,F,]3 [D,A,] | %7
 [C,C]2 [F,C]2 [A,,C]3 [B,,D] | [C,C][C,B,][C,A,][C,G,] !fermata![F,A,]2 ||[M:12/8] z3 | %10
 z3 F,F,F, F,2 z4 | z2 [B,,B,] [B,,B,][B,,B,][B,,B,] [B,,B,]3 z3 | %12
 z3 [C,C][C,C][C,C] [C,C]3 [C,C]3 | [A,,C]2 [A,,C] [C,A,]2 [C,A,] F,3 z3 | z3 F,F,F, F,2 z4 | %15
 z2 [B,,B,] [B,,B,][B,,B,][B,,B,] [B,,B,]3 [B,,B,][A,,C][G,,C] | [C,C]6 [C,B,]6 | %17
 [F,A,]6- [F,A,]3 |] %18
V:4
 x | x8 | x8 | x8 | x8 | F,2 x6 | x8 | x8 | x6 ||[M:12/8] x3 | x3 F,F,F, F,2 x4 | x12 | x12 | %13
 x6 F,3 x3 | x3 F,F,F, F,2 x4 | x12 | x12 | x9 |] %18

